X:1
T:Spokane, LMD
T:Spokane, LMD
T:Charles Hutchinson Gabriel, 1894
T:Public Domain Courtesy of the Cyber Hymnal™
C:Charles Hutchinson Gabriel, 1894
Z:Public Domain
Z:Courtesy of the Cyber Hymnal™
%%score ( 1 2 ) ( 3 4 )
L:1/8
Q:1/4=93
M:3/4
K:Eb
V:1 treble 
V:2 treble 
V:3 bass 
V:4 bass 
V:1
 [EG]2 | [EB][EB] [EB]2 (=AB) | [Ec][EB] [EB]2 [EG]2 | [DB][DF] [DF]3 [FA] | [FA][EG] [EG]2 [EB]2 | %5
 [Ec][Ec] [Ec]2 (dc) | [Ec][EB] [EB]2 [EG]2 | FF [FB][FB] [Fc][E=A] | [DB]4 [AB]2 | %9
 [Ge]>[Ge] [Ge]3 [GB] | [Ac]>[Ac] [GB]3 [EG] | [DB][DF] [DF]3 [DB] | [EB][EG] [EG]2 [EB]2 | %13
 [Ec]>[Ec] [Ec]3 [EF] | [EB]>[EB] [EB]3 [EB] | [DB]"^riten."[DF] [FB]3"^ad lib." [DA] | %16
 [DG]>[DF] E2 |] %17
V:2
 x2 | x4 E2 | x6 | x6 | x6 | x4 E2 | x6 | FF x4 | x6 | x6 | x6 | x6 | x6 | x6 | x6 | x6 | x2 E2 |] %17
V:3
 [E,B,]2 | [E,G,][E,G,] [E,G,]2 (^F,G,) | [E,A,][E,G,] [E,G,]2 [E,B,]2 | %3
 [B,,B,][B,,B,] [B,,B,]3 [B,,B,] | [E,B,][E,B,] [E,B,]2 [E,G,]2 | [A,,A,][A,,A,] [A,,A,]2 (B,A,) | %6
 [E,A,][E,G,] [E,G,]2 [E,B,]2 | [D,B,][D,B,] [B,,D][D,B,] [F,=A,][F,C] | [B,,B,]4 B,2 | %9
 [E,B,]>[E,B,] [E,B,]3 [E,E] | [A,E]>[A,E] [E,E]3 [E,B,] | [B,,B,][B,,B,] [B,,B,]3 [B,,A,] | %12
 [E,G,][E,B,] [E,B,]2 [E,G,]2 | A,>A, A,3 [A,C] | [G,B,]>[G,B,] [G,B,]3 [E,G,] | %15
 [B,,F,][B,,B,] [B,,D]3 [B,,C] | [B,,B,]>[B,,A,] [E,G,]2 |] %17
V:4
 x2 | x4 E,2 | x6 | x6 | x6 | x4 A,,2 | x6 | x6 | x4 B,2 | x6 | x6 | x6 | x6 | A,>A, A,3 x | x6 | %15
 x6 | x4 |] %17

